source/work/images/artifact_experiencejourney.svg

<svg xmlns="http://www.w3.org/2000/svg" width="64" height="64" viewBox="0 0 64 64"><style type="text/css">.frame{fill:#FFFFFF;} .content{opacity:0.5;fill:#FFFFFF;}</style><path class="frame" d="M60 6h-28c0-1.657-1.343-3-3-3h-25c-1.657 0-3 1.343-3 3v49c0 1.657 1.343 3 3 3h14c0 1.657 1.343 3 3 3h39c1.657 0 3-1.343 3-3v-49c0-1.657-1.343-3-3-3zm-56 51c-1.104 0-2-.895-2-2v-49c0-1.105.896-2 2-2h25c1.104 0 2 .895 2 2v49c0 1.105-.896 2-2 2h-25zm15 1h7.242l-5.314 1.993c-1.07-.039-1.928-.913-1.928-1.993zm43 0c0 1.105-.896 2-2 2h-36.242l5.367-2.013c1.597-.066 2.875-1.373 2.875-2.987v-48h28c1.104 0 2 .895 2 2v49z"/><path class="content" d="M6 17h6c1.105 0 2-.895 2-2v-2.5h2.793l-.793.793c-.195.195-.195.512 0 .707.195.195.512.195.707 0l1.646-1.646c.195-.195.195-.512 0-.707l-1.646-1.647c-.195-.195-.512-.195-.707 0-.195.195-.195.512 0 .707l.793.793h-2.793v-2.5c0-1.105-.895-2-2-2h-6c-1.105 0-2 .895-2 2v6c0 1.105.895 2 2 2zm-1-2v-6l.049-.244 3.244 3.244-3.244 3.244-.049-.244zm1 1l-.244-.049 3.244-3.244 3.244 3.244-.244.049h-6zm6.951-7.244l.049.244v6l-.049.244-3.244-3.244 3.244-3.244zm-.951-.756l.244.049-3.244 3.244-3.244-3.244.244-.049h6zm9 9h6c1.105 0 2-.895 2-2v-6c0-1.105-.895-2-2-2h-6c-1.105 0-2 .895-2 2v6c0 1.105.895 2 2 2zm-1-2v-6l.049-.244 3.244 3.244-3.244 3.244-.049-.244zm1 1l-.244-.049 3.244-3.244 3.244 3.244-.244.049h-6zm6.951-7.244l.049.244v6l-.049.244-3.244-3.244 3.244-3.244zm-.951-.756l.244.049-3.244 3.244-3.244-3.244.244-.049h6zm30 2h-6c-1.105 0-2 .895-2 2v6c0 1.105.895 2 2 2h6c1.105 0 2-.895 2-2v-6c0-1.105-.895-2-2-2zm1 2v6l-.049.244-3.244-3.244 3.244-3.244.049.244zm-1-1l.244.049-3.244 3.244-3.244-3.244.244-.049h6zm-6.951 7.244l-.049-.244v-6l.049-.244 3.244 3.244-3.244 3.244zm.951.756l-.244-.049 3.244-3.244 3.244 3.244-.244.049h-6zm6 5h-6c-1.105 0-2 .895-2 2v6c0 1.105.895 2 2 2h6c1.105 0 2-.895 2-2v-6c0-1.105-.895-2-2-2zm1 2v6l-.049.244-3.244-3.244 3.244-3.244.049.244zm-1-1l.244.049-3.244 3.244-3.244-3.244.244-.049h6zm-6.951 7.244l-.049-.244v-6l.049-.244 3.244 3.244-3.244 3.244zm.951.756l-.244-.049 3.244-3.244 3.244 3.244-.244.049h-6zm-45-2h6c1.105 0 2-.895 2-2v-2.5h17.5v-1h-17.5v-2.5c0-1.105-.895-2-2-2h-6c-1.105 0-2 .895-2 2v6c0 1.105.895 2 2 2zm-1-2v-6l.049-.244 3.244 3.244-3.244 3.244-.049-.244zm1 1l-.244-.049 3.244-3.244 3.244 3.244-.244.049h-6zm6.951-7.244l.049.244v6l-.049.244-3.244-3.244 3.244-3.244zm-.951-.756l.244.049-3.244 3.244-3.244-3.244.244-.049h6zm45 16h-6c-1.105 0-2 .895-2 2v6c0 1.105.895 2 2 2h6c1.105 0 2-.895 2-2v-6c0-1.105-.895-2-2-2zm1 2v6l-.049.244-3.244-3.244 3.244-3.244.049.244zm-1-1l.244.049-3.244 3.244-3.244-3.244.244-.049h6zm-6.951 7.244l-.049-.244v-6l.049-.244 3.244 3.244-3.244 3.244zm.951.756l-.244-.049 3.244-3.244 3.244 3.244-.244.049h-6zm-37 3.5c0 .276-.224.5-.5.5h-9c-.276 0-.5-.224-.5-.5s.224-.5.5-.5h9c.276 0 .5.224.5.5zm15 0c0 .276-.224.5-.5.5h-9c-.276 0-.5-.224-.5-.5s.224-.5.5-.5h9c.276 0 .5.224.5.5zm30 3c0 .276-.224.5-.5.5h-9c-.276 0-.5-.224-.5-.5s.224-.5.5-.5h9c.276 0 .5.224.5.5zm-48-1c0 .276-.224.5-.5.5h-6c-.276 0-.5-.224-.5-.5s.224-.5.5-.5h6c.276 0 .5.224.5.5zm15 0c0 .276-.224.5-.5.5h-6c-.276 0-.5-.224-.5-.5s.224-.5.5-.5h6c.276 0 .5.224.5.5zm30 3c0 .276-.224.5-.5.5h-6c-.276 0-.5-.224-.5-.5s.224-.5.5-.5h6c.276 0 .5.224.5.5zm-11-2c0 .276-.224.5-.5.5h-9c-.276 0-.5-.224-.5-.5s.224-.5.5-.5h9c.276 0 .5.224.5.5zm-3 2c0 .276-.224.5-.5.5h-6c-.276 0-.5-.224-.5-.5s.224-.5.5-.5h6c.276 0 .5.224.5.5zm-26-16.793l.793.793h-2.793v-2.5c0-1.105-.895-2-2-2h-6c-1.105 0-2 .895-2 2v6c0 1.105.895 2 2 2h6c1.105 0 2-.895 2-2v-2.5h2.793l-.793.793c-.195.195-.195.512 0 .707.195.195.512.195.707 0l1.646-1.646c.195-.195.195-.512 0-.707l-1.646-1.647c-.195-.195-.512-.195-.707 0-.195.195-.195.512 0 .707zm-3-1.707v6l-.049.244-3.244-3.244 3.244-3.244.049.244zm-1-1l.244.049-3.244 3.244-3.244-3.244.244-.049h6zm-6.951 7.244l-.049-.244v-6l.049-.244 3.244 3.244-3.244 3.244zm.951.756l-.244-.049 3.244-3.244 3.244 3.244-.244.049h-6zm40.707-3l1.646 1.646c.195.195.195.512 0 .707l-1.646 1.647c-.195.195-.512.195-.707 0-.195-.195-.195-.512 0-.707l.793-.793h-15.293v-1h15.293l-.793-.793c-.195-.195-.195-.512 0-.707.195-.195.512-.195.707 0zm-.707-27.293l.793.793h-2.793v-2.5c0-1.105-.895-2-2-2h-6c-1.105 0-2 .895-2 2v6c0 1.105.895 2 2 2h6c1.105 0 2-.895 2-2v-2.5h2.793l-.793.793c-.195.195-.195.512 0 .707.195.195.512.195.707 0l1.646-1.646c.195-.195.195-.512 0-.707l-1.646-1.647c-.195-.195-.512-.195-.707 0-.195.195-.195.512 0 .707zm-3-1.707v6l-.049.244-3.244-3.244 3.244-3.244.049.244zm-1-1l.244.049-3.244 3.244-3.244-3.244.244-.049h6zm-6.951 7.244l-.049-.244v-6l.049-.244 3.244 3.244-3.244 3.244zm.951.756l-.244-.049 3.244-3.244 3.244 3.244-.244.049h-6zm10 8.707l.793.793h-2.793v-2.5c0-1.105-.895-2-2-2h-6c-1.105 0-2 .895-2 2v6c0 1.105.895 2 2 2h6c1.105 0 2-.895 2-2v-2.5h2.793l-.793.793c-.195.195-.195.512 0 .707.195.195.512.195.707 0l1.646-1.646c.195-.195.195-.512 0-.707l-1.646-1.647c-.195-.195-.512-.195-.707 0-.195.195-.195.512 0 .707zm-3-1.707v6l-.049.244-3.244-3.244 3.244-3.244.049.244zm-1-1l.244.049-3.244 3.244-3.244-3.244.244-.049h6zm-6.951 7.244l-.049-.244v-6l.049-.244 3.244 3.244-3.244 3.244zm.951.756l-.244-.049 3.244-3.244 3.244 3.244-.244.049h-6zm-4.5 6.5h-2.5v-2.5c0-1.105-.895-2-2-2h-6c-1.105 0-2 .895-2 2v6c0 1.105.895 2 2 2h6c1.105 0 2-.895 2-2v-2.5h2.5v-1zm-3.5-2.5v6l-.049.244-3.244-3.244 3.244-3.244.049.244zm-1-1l.244.049-3.244 3.244-3.244-3.244.244-.049h6zm-6.951 7.244l-.049-.244v-6l.049-.244 3.244 3.244-3.244 3.244zm.951.756l-.244-.049 3.244-3.244 3.244 3.244-.244.049h-6zm10.5-14.207l.293-.293h-.293v-1h.293l-.293-.293v-1.414l1.854 1.854c.195.195.195.512 0 .707l-1.854 1.853v-1.414z"/></svg>

<?xml version="1.0" encoding="utf-8"?>
<!-- Generator: Adobe Illustrator 19.2.1, SVG Export Plug-In . SVG Version: 6.00 Build 0)  -->
<svg version="1.1" id="icons" xmlns="http://www.w3.org/2000/svg" xmlns:xlink="http://www.w3.org/1999/xlink" x="0px" y="0px"
	 width="64px" height="64px" viewBox="0 0 64 64" style="enable-background:new 0 0 64 64;" xml:space="preserve">
<style type="text/css">
	.frame{fill:#FFFFFF;}
	.content{opacity:0.5;fill:#FFFFFF;}
</style>
<path class="frame" d="M60,6H32c0-1.657-1.343-3-3-3H4C2.343,3,1,4.343,1,6v49c0,1.657,1.343,3,3,3h14c0,1.657,1.343,3,3,3h39
	c1.657,0,3-1.343,3-3V9C63,7.343,61.657,6,60,6z M4,57c-1.104,0-2-0.895-2-2V6c0-1.105,0.896-2,2-2h25c1.104,0,2,0.895,2,2v49
	c0,1.105-0.896,2-2,2H4z M19,58h7.242l-5.314,1.993C19.858,59.954,19,59.08,19,58z M62,58c0,1.105-0.896,2-2,2H23.758l5.367-2.013
	C30.722,57.921,32,56.614,32,55V7h28c1.104,0,2,0.895,2,2V58z"/>
<path class="content" d="M6,17h6c1.105,0,2-0.895,2-2v-2.5h2.793L16,13.293c-0.195,0.195-0.195,0.512,0,0.707l0,0
	c0.195,0.195,0.512,0.195,0.707,0l1.646-1.646c0.195-0.195,0.195-0.512,0-0.707L16.707,10C16.512,9.805,16.195,9.805,16,10l0,0
	c-0.195,0.195-0.195,0.512,0,0.707l0.793,0.793H14V9c0-1.105-0.895-2-2-2H6C4.895,7,4,7.895,4,9v6C4,16.105,4.895,17,6,17z M5,15V9
	c0-0.086,0.029-0.164,0.049-0.244L8.293,12l-3.244,3.244C5.029,15.164,5,15.086,5,15z M6,16c-0.086,0-0.164-0.029-0.244-0.049
	L9,12.707l3.244,3.244C12.164,15.971,12.086,16,12,16H6z M12.951,8.756C12.971,8.836,13,8.914,13,9v6
	c0,0.086-0.029,0.164-0.049,0.244L9.707,12L12.951,8.756z M12,8c0.086,0,0.164,0.029,0.244,0.049L9,11.293L5.756,8.049
	C5.836,8.029,5.914,8,6,8H12z M21,17h6c1.105,0,2-0.895,2-2V9c0-1.105-0.895-2-2-2h-6c-1.105,0-2,0.895-2,2v6
	C19,16.105,19.895,17,21,17z M20,15V9c0-0.086,0.029-0.164,0.049-0.244L23.293,12l-3.244,3.244C20.029,15.164,20,15.086,20,15z
	 M21,16c-0.086,0-0.164-0.029-0.244-0.049L24,12.707l3.244,3.244C27.164,15.971,27.086,16,27,16H21z M27.951,8.756
	C27.971,8.836,28,8.914,28,9v6c0,0.086-0.029,0.164-0.049,0.244L24.707,12L27.951,8.756z M27,8c0.086,0,0.164,0.029,0.244,0.049
	L24,11.293l-3.244-3.244C20.836,8.029,20.914,8,21,8H27z M57,10h-6c-1.105,0-2,0.895-2,2v6c0,1.105,0.895,2,2,2h6
	c1.105,0,2-0.895,2-2v-6C59,10.895,58.105,10,57,10z M58,12v6c0,0.086-0.029,0.164-0.049,0.244L54.707,15l3.244-3.244
	C57.971,11.836,58,11.914,58,12z M57,11c0.086,0,0.164,0.029,0.244,0.049L54,14.293l-3.244-3.244C50.836,11.029,50.914,11,51,11H57z
	 M50.049,18.244C50.029,18.164,50,18.086,50,18v-6c0-0.086,0.029-0.164,0.049-0.244L53.293,15L50.049,18.244z M51,19
	c-0.086,0-0.164-0.029-0.244-0.049L54,15.707l3.244,3.244C57.164,18.971,57.086,19,57,19H51z M57,24h-6c-1.105,0-2,0.895-2,2v6
	c0,1.105,0.895,2,2,2h6c1.105,0,2-0.895,2-2v-6C59,24.895,58.105,24,57,24z M58,26v6c0,0.086-0.029,0.164-0.049,0.244L54.707,29
	l3.244-3.244C57.971,25.836,58,25.914,58,26z M57,25c0.086,0,0.164,0.029,0.244,0.049L54,28.293l-3.244-3.244
	C50.836,25.029,50.914,25,51,25H57z M50.049,32.244C50.029,32.164,50,32.086,50,32v-6c0-0.086,0.029-0.164,0.049-0.244L53.293,29
	L50.049,32.244z M51,33c-0.086,0-0.164-0.029-0.244-0.049L54,29.707l3.244,3.244C57.164,32.971,57.086,33,57,33H51z M6,31h6
	c1.105,0,2-0.895,2-2v-2.5h17.5v-1H14V23c0-1.105-0.895-2-2-2H6c-1.105,0-2,0.895-2,2v6C4,30.105,4.895,31,6,31z M5,29v-6
	c0-0.086,0.029-0.164,0.049-0.244L8.293,26l-3.244,3.244C5.029,29.164,5,29.086,5,29z M6,30c-0.086,0-0.164-0.029-0.244-0.049
	L9,26.707l3.244,3.244C12.164,29.971,12.086,30,12,30H6z M12.951,22.756C12.971,22.836,13,22.914,13,23v6
	c0,0.086-0.029,0.164-0.049,0.244L9.707,26L12.951,22.756z M12,22c0.086,0,0.164,0.029,0.244,0.049L9,25.293l-3.244-3.244
	C5.836,22.029,5.914,22,6,22H12z M57,38h-6c-1.105,0-2,0.895-2,2v6c0,1.105,0.895,2,2,2h6c1.105,0,2-0.895,2-2v-6
	C59,38.895,58.105,38,57,38z M58,40v6c0,0.086-0.029,0.164-0.049,0.244L54.707,43l3.244-3.244C57.971,39.836,58,39.914,58,40z
	 M57,39c0.086,0,0.164,0.029,0.244,0.049L54,42.293l-3.244-3.244C50.836,39.029,50.914,39,51,39H57z M50.049,46.244
	C50.029,46.164,50,46.086,50,46v-6c0-0.086,0.029-0.164,0.049-0.244L53.293,43L50.049,46.244z M51,47
	c-0.086,0-0.164-0.029-0.244-0.049L54,43.707l3.244,3.244C57.164,46.971,57.086,47,57,47H51z M14,50.5c0,0.276-0.224,0.5-0.5,0.5h-9
	C4.224,51,4,50.776,4,50.5S4.224,50,4.5,50h9C13.776,50,14,50.224,14,50.5z M29,50.5c0,0.276-0.224,0.5-0.5,0.5h-9
	c-0.276,0-0.5-0.224-0.5-0.5s0.224-0.5,0.5-0.5h9C28.776,50,29,50.224,29,50.5z M59,53.5c0,0.276-0.224,0.5-0.5,0.5h-9
	c-0.276,0-0.5-0.224-0.5-0.5s0.224-0.5,0.5-0.5h9C58.776,53,59,53.224,59,53.5z M11,52.5c0,0.276-0.224,0.5-0.5,0.5h-6
	C4.224,53,4,52.776,4,52.5S4.224,52,4.5,52h6C10.776,52,11,52.224,11,52.5z M26,52.5c0,0.276-0.224,0.5-0.5,0.5h-6
	c-0.276,0-0.5-0.224-0.5-0.5s0.224-0.5,0.5-0.5h6C25.776,52,26,52.224,26,52.5z M56,55.5c0,0.276-0.224,0.5-0.5,0.5h-6
	c-0.276,0-0.5-0.224-0.5-0.5s0.224-0.5,0.5-0.5h6C55.776,55,56,55.224,56,55.5z M45,53.5c0,0.276-0.224,0.5-0.5,0.5h-9
	c-0.276,0-0.5-0.224-0.5-0.5s0.224-0.5,0.5-0.5h9C44.776,53,45,53.224,45,53.5z M42,55.5c0,0.276-0.224,0.5-0.5,0.5h-6
	c-0.276,0-0.5-0.224-0.5-0.5s0.224-0.5,0.5-0.5h6C41.776,55,42,55.224,42,55.5z M16,38.707l0.793,0.793H14V37c0-1.105-0.895-2-2-2H6
	c-1.105,0-2,0.895-2,2v6c0,1.105,0.895,2,2,2h6c1.105,0,2-0.895,2-2v-2.5h2.793L16,41.293c-0.195,0.195-0.195,0.512,0,0.707l0,0
	c0.195,0.195,0.512,0.195,0.707,0l1.646-1.646c0.195-0.195,0.195-0.512,0-0.707L16.707,38c-0.195-0.195-0.512-0.195-0.707,0l0,0
	C15.805,38.195,15.805,38.512,16,38.707z M13,37v6c0,0.086-0.029,0.164-0.049,0.244L9.707,40l3.244-3.244
	C12.971,36.836,13,36.914,13,37z M12,36c0.086,0,0.164,0.029,0.244,0.049L9,39.293l-3.244-3.244C5.836,36.029,5.914,36,6,36H12z
	 M5.049,43.244C5.029,43.164,5,43.086,5,43v-6c0-0.086,0.029-0.164,0.049-0.244L8.293,40L5.049,43.244z M6,44
	c-0.086,0-0.164-0.029-0.244-0.049L9,40.707l3.244,3.244C12.164,43.971,12.086,44,12,44H6z M46.707,41l1.646,1.646
	c0.195,0.195,0.195,0.512,0,0.707L46.707,45c-0.195,0.195-0.512,0.195-0.707,0l0,0c-0.195-0.195-0.195-0.512,0-0.707l0.793-0.793
	H31.5v-1h15.293L46,41.707c-0.195-0.195-0.195-0.512,0-0.707l0,0C46.195,40.805,46.512,40.805,46.707,41z M46,13.707l0.793,0.793H44
	V12c0-1.105-0.895-2-2-2h-6c-1.105,0-2,0.895-2,2v6c0,1.105,0.895,2,2,2h6c1.105,0,2-0.895,2-2v-2.5h2.793L46,16.293
	c-0.195,0.195-0.195,0.512,0,0.707l0,0c0.195,0.195,0.512,0.195,0.707,0l1.646-1.646c0.195-0.195,0.195-0.512,0-0.707L46.707,13
	c-0.195-0.195-0.512-0.195-0.707,0l0,0C45.805,13.195,45.805,13.512,46,13.707z M43,12v6c0,0.086-0.029,0.164-0.049,0.244L39.707,15
	l3.244-3.244C42.971,11.836,43,11.914,43,12z M42,11c0.086,0,0.164,0.029,0.244,0.049L39,14.293l-3.244-3.244
	C35.836,11.029,35.914,11,36,11H42z M35.049,18.244C35.029,18.164,35,18.086,35,18v-6c0-0.086,0.029-0.164,0.049-0.244L38.293,15
	L35.049,18.244z M36,19c-0.086,0-0.164-0.029-0.244-0.049L39,15.707l3.244,3.244C42.164,18.971,42.086,19,42,19H36z M46,27.707
	l0.793,0.793H44V26c0-1.105-0.895-2-2-2h-6c-1.105,0-2,0.895-2,2v6c0,1.105,0.895,2,2,2h6c1.105,0,2-0.895,2-2v-2.5h2.793L46,30.293
	c-0.195,0.195-0.195,0.512,0,0.707l0,0c0.195,0.195,0.512,0.195,0.707,0l1.646-1.646c0.195-0.195,0.195-0.512,0-0.707L46.707,27
	c-0.195-0.195-0.512-0.195-0.707,0l0,0C45.805,27.195,45.805,27.512,46,27.707z M43,26v6c0,0.086-0.029,0.164-0.049,0.244L39.707,29
	l3.244-3.244C42.971,25.836,43,25.914,43,26z M42,25c0.086,0,0.164,0.029,0.244,0.049L39,28.293l-3.244-3.244
	C35.836,25.029,35.914,25,36,25H42z M35.049,32.244C35.029,32.164,35,32.086,35,32v-6c0-0.086,0.029-0.164,0.049-0.244L38.293,29
	L35.049,32.244z M36,33c-0.086,0-0.164-0.029-0.244-0.049L39,29.707l3.244,3.244C42.164,32.971,42.086,33,42,33H36z M31.5,39.5H29
	V37c0-1.105-0.895-2-2-2h-6c-1.105,0-2,0.895-2,2v6c0,1.105,0.895,2,2,2h6c1.105,0,2-0.895,2-2v-2.5h2.5V39.5z M28,37v6
	c0,0.086-0.029,0.164-0.049,0.244L24.707,40l3.244-3.244C27.971,36.836,28,36.914,28,37z M27,36c0.086,0,0.164,0.029,0.244,0.049
	L24,39.293l-3.244-3.244C20.836,36.029,20.914,36,21,36H27z M20.049,43.244C20.029,43.164,20,43.086,20,43v-6
	c0-0.086,0.029-0.164,0.049-0.244L23.293,40L20.049,43.244z M21,44c-0.086,0-0.164-0.029-0.244-0.049L24,40.707l3.244,3.244
	C27.164,43.971,27.086,44,27,44H21z M31.5,29.793l0.293-0.293H31.5v-1h0.293L31.5,28.207v-1.414l1.854,1.854
	c0.195,0.195,0.195,0.512,0,0.707L31.5,31.207V29.793z"/>
</svg>
